fs/emoji_edit_28_regular.svg

<svg viewBox="0 0 28 28" fill="none" xmlns="http://www.w3.org/2000/svg" height="1em" width="1em">
  <path d="M17.5 13C18.3284 13 19 12.3284 19 11.5C19 10.6716 18.3284 10 17.5 10C16.6716 10 16 10.6716 16 11.5C16 12.3284 16.6716 13 17.5 13ZM12 11.5C12 12.3284 11.3284 13 10.5 13C9.67157 13 9 12.3284 9 11.5C9 10.6716 9.67157 10 10.5 10C11.3284 10 12 10.6716 12 11.5ZM8.32825 17.1299C8.66982 16.8975 9.13472 16.9852 9.36831 17.3254L9.37651 17.3369C9.38499 17.3485 9.3998 17.3685 9.42099 17.3956C9.4634 17.4498 9.53104 17.5323 9.62406 17.6338C9.81053 17.8372 10.0962 18.1136 10.482 18.3912C11.2501 18.9437 12.4127 19.5 14.0001 19.5C15.5875 19.5 16.7501 18.9437 17.5182 18.3912C17.904 18.1136 18.1896 17.8372 18.3761 17.6338C18.4691 17.5323 18.5368 17.4498 18.5792 17.3956C18.6003 17.3685 18.6152 17.3485 18.6236 17.3369L18.6312 17.3263C18.7962 17.0852 19.0773 16.9706 19.3487 17.0064L15.4963 20.8588C15.0347 20.9482 14.536 21 14.0001 21C12.038 21 10.5756 20.3063 9.60604 19.6088C9.12305 19.2614 8.76172 18.9128 8.51842 18.6475C8.39656 18.5146 8.30362 18.4018 8.23916 18.3193C8.20692 18.278 8.18173 18.2443 8.16356 18.2193C8.15447 18.2068 8.14713 18.1965 8.14153 18.1886L8.13444 18.1784L8.13186 18.1747L8.13082 18.1731L8.12994 18.1718C7.89697 17.8293 7.98576 17.3628 8.32825 17.1299ZM14 3.5C19.4653 3.5 23.9553 7.6755 24.454 13.0104C24.9692 12.9694 25.4923 13.0495 25.977 13.2507C25.5902 6.97231 20.3758 2 14 2C7.37258 2 2 7.37258 2 14C2 20.2904 6.84013 25.4504 12.9993 25.9589C12.9962 25.7792 13.0165 25.5945 13.0632 25.4075L13.2959 24.4768C7.82523 24.1146 3.5 19.5624 3.5 14C3.5 8.20101 8.20101 3.5 14 3.5ZM23.0999 14.6695L15.1974 22.5719C14.8533 22.916 14.6092 23.3472 14.4911 23.8194L14.0334 25.6501C13.8344 26.4462 14.5556 27.1674 15.3517 26.9683L17.1824 26.5106C17.6545 26.3926 18.0857 26.1485 18.4299 25.8043L26.3323 17.9019C27.2249 17.0093 27.2249 15.5621 26.3323 14.6695C25.4397 13.7768 23.9925 13.7768 23.0999 14.6695Z" fill="#212121"/>
</svg>

<svg viewBox="0 0 28 28" fill="none" xmlns="http://www.w3.org/2000/svg" height="1em" width="1em">
  <path d="M17.5 13a1.5 1.5 0 1 0 0-3 1.5 1.5 0 0 0 0 3ZM12 11.5a1.5 1.5 0 1 1-3 0 1.5 1.5 0 0 1 3 0Zm-3.672 5.63a.75.75 0 0 1 1.04.195l.009.012.044.059c.042.054.11.136.203.238.187.203.472.48.858.757.768.553 1.93 1.109 3.518 1.109 1.588 0 2.75-.556 3.518-1.109.386-.277.672-.554.858-.757a4.068 4.068 0 0 0 .248-.297l.007-.01a.75.75 0 0 1 .718-.32l-3.853 3.852c-.461.09-.96.141-1.496.141-1.962 0-3.424-.694-4.394-1.391a7.137 7.137 0 0 1-1.088-.962 5.505 5.505 0 0 1-.376-.458l-.008-.01-.002-.004-.001-.002-.001-.001a.75.75 0 0 1 .198-1.042ZM14 3.5c5.465 0 9.955 4.176 10.454 9.51a3.293 3.293 0 0 1 1.523.24C25.59 6.973 20.376 2 14 2 7.373 2 2 7.373 2 14c0 6.29 4.84 11.45 11 11.959a2.12 2.12 0 0 1 .063-.552l.233-.93C7.826 24.115 3.5 19.562 3.5 14 3.5 8.201 8.201 3.5 14 3.5Zm9.1 11.17-7.903 7.902a2.686 2.686 0 0 0-.706 1.247l-.458 1.831a1.087 1.087 0 0 0 1.319 1.318l1.83-.457a2.685 2.685 0 0 0 1.248-.707l7.902-7.902a2.286 2.286 0 0 0-3.232-3.233Z" fill="#212121"/>
</svg>
